website/static/img/apify_sdk.svg

<svg width="220" height="40" viewBox="0 0 220 40" fill="none" xmlns="http://www.w3.org/2000/svg">
<g clip-path="url(#clip0_1_4)">
<path d="M4.90394 3.72451C3.41178 3.93135 2.06284 4.72234 1.15376 5.92354C0.244679 7.12475 -0.150123 8.63783 0.056171 10.1301L3.41709 34.1265L17.5554 1.95981L4.90394 3.72451Z" fill="#97D700"/>
<path d="M39.0186 23.7186L37.6973 5.27045C37.586 3.77011 36.8851 2.3749 35.7478 1.38998C34.6106 0.405061 33.1295 -0.0893947 31.6287 0.0147632C31.5018 0.0196161 31.3753 0.0334451 31.2503 0.0561466L25.7936 0.809915L37.78 27.6825C38.6791 26.5653 39.1216 25.1489 39.0186 23.7186Z" fill="#71C5E8"/>
<path d="M8.57227 39.9645C9.53997 40.0742 10.5196 39.9316 11.4159 39.5507L31.9982 30.8661L22.2022 8.92404L8.57227 39.9645Z" fill="#FF9013"/>
<path d="M56.0627 7.81259H62.5658L71.6465 32.1844H65.8232L64.1206 27.1948H54.3246L52.616 32.1844H46.9761L56.0627 7.81259ZM55.7671 22.8673H62.6663L59.332 12.8761H59.1901L55.7671 22.8673Z" fill="#242736"/>
<path d="M97.7476 7.81259H103.252V32.1844H97.7476V7.81259Z" fill="#242736"/>
<path d="M107.402 7.81259H125.253V12.3116H112.918V19.1487H122.855V23.5353H112.918V32.1785H107.402V7.81259Z" fill="#242736"/>
<path d="M136.539 22.9382L127.375 7.81259H133.609L139.323 17.8392H139.465L145.463 7.81259H151.345L142.078 22.9027V32.1844H136.539V22.9382Z" fill="#242736"/>
<path d="M85.9296 7.81259H73.7747V32.1844H79.2757V24.4605H85.9296C88.1373 24.4605 90.2545 23.5835 91.8155 22.0225C93.3766 20.4615 94.2536 18.3442 94.2536 16.1366C94.2536 13.9289 93.3766 11.8117 91.8155 10.2506C90.2545 8.68958 88.1373 7.81259 85.9296 7.81259ZM85.3207 20.1744H79.2757V12.0987H85.3207C86.3916 12.0987 87.4186 12.5241 88.1759 13.2814C88.9331 14.0386 89.3585 15.0657 89.3585 16.1366C89.3585 17.2075 88.9331 18.2345 88.1759 18.9917C87.4186 19.749 86.3916 20.1744 85.3207 20.1744Z" fill="#242736"/>
<path d="M156.036 25.3148H157.878C158.28 28.3328 159.947 30.9104 164.948 30.9104C168.699 30.9104 171.156 28.7348 171.156 25.7848C171.156 22.4357 169.548 21.2622 164.724 20.5262C159.486 19.7547 156.961 18.0136 156.961 14.227C156.961 10.5084 160.009 7.96039 164.499 7.96039C168.989 7.96039 171.67 10.1714 172.205 13.9905H170.497C169.926 11.0109 168.052 9.5034 164.499 9.5034C160.816 9.5034 158.702 11.2119 158.702 14.094C158.702 16.7071 160.009 18.1141 165.001 18.8501C170.364 19.6542 172.941 21.1617 172.941 25.6488C172.941 29.4354 169.761 32.4475 164.936 32.4475C159.03 32.4534 156.539 29.2374 156.036 25.3148Z" fill="#242736"/>
<path d="M177.881 8.22937H184.112C192.019 8.22937 196.039 13.3225 196.039 19.9882V20.2838C196.039 26.9169 192.22 32.1785 184.044 32.1785H177.881V8.22937ZM183.979 30.6444C190.777 30.6444 194.097 26.3553 194.097 20.2572V19.9882C194.097 14.094 190.978 9.76942 183.943 9.76942H179.755V30.6444H183.979Z" fill="#242736"/>
<path d="M200.863 8.22939H202.74V20.0237L214.366 8.19983H216.509L204.919 19.8877L217.079 32.1845H214.8L202.74 20.1005V32.1963H200.863V8.22939Z" fill="#242736"/>
</g>
<defs>
<clipPath id="clip0_1_4">
<rect width="219.048" height="40" fill="white"/>
</clipPath>
</defs>
</svg>

<svg width="220" height="40" fill="none" xmlns="http://www.w3.org/2000/svg">
    <g clip-path="url(#a)">
        <path d="M4.904 3.725A5.681 5.681 0 0 0 .056 10.13l3.361 23.997L17.555 1.96 4.904 3.725Z" fill="#97D700"/>
        <path d="M39.019 23.719 37.697 5.27A5.69 5.69 0 0 0 31.25.056L25.794.81 37.78 27.683a5.673 5.673 0 0 0 1.239-3.964Z" fill="#71C5E8"/>
        <path d="M8.572 39.965a5.645 5.645 0 0 0 2.844-.414l20.582-8.685-9.796-21.942-13.63 31.04Z" fill="#FF9013"/>
        <path d="M56.063 7.813h6.503l9.08 24.371h-5.823l-1.702-4.99h-9.796l-1.709 4.99h-5.64l9.087-24.371Zm-.296 15.054h6.9l-3.335-9.99h-.142l-3.423 9.99ZM97.748 7.813h5.504v24.371h-5.504V7.813Zm9.654 0h17.851v4.499h-12.335v6.837h9.937v4.386h-9.937v8.643h-5.516V7.814Zm29.137 15.125-9.164-15.125h6.234l5.714 10.026h.142l5.998-10.026h5.882l-9.267 15.09v9.281h-5.539v-9.246ZM85.93 7.813H73.775v24.371h5.5v-7.723h6.655a8.324 8.324 0 1 0 0-16.648Zm-.61 12.361h-6.044V12.1h6.045a4.038 4.038 0 0 1 0 8.075Zm70.716 5.141h1.842c.402 3.018 2.069 5.595 7.07 5.595 3.751 0 6.208-2.175 6.208-5.125 0-3.35-1.608-4.523-6.432-5.259-5.238-.771-7.763-2.512-7.763-6.299 0-3.719 3.048-6.267 7.538-6.267s7.171 2.211 7.706 6.03h-1.708c-.571-2.98-2.445-4.487-5.998-4.487-3.683 0-5.797 1.709-5.797 4.591 0 2.613 1.307 4.02 6.299 4.756 5.363.804 7.94 2.312 7.94 6.799 0 3.786-3.18 6.798-8.005 6.798-5.906.006-8.397-3.21-8.9-7.132ZM177.881 8.23h6.231c7.907 0 11.927 5.092 11.927 11.758v.296c0 6.633-3.819 11.895-11.995 11.895h-6.163V8.229Zm6.098 22.414c6.798 0 10.118-4.289 10.118-10.387v-.269c0-5.894-3.119-10.219-10.154-10.219h-4.188v20.875h4.224ZM200.863 8.23h1.877v11.794L214.366 8.2h2.143l-11.59 11.688 12.16 12.296H214.8l-12.06-12.083v12.095h-1.877V8.23Z" fill="#242736"/>
    </g>
    <defs>
        <clipPath id="a">
            <path fill="#fff" d="M0 0h219.048v40H0z"/>
        </clipPath>
    </defs>
</svg>
